src/16/actions/document-page-setup.svg

<svg xmlns="http://www.w3.org/2000/svg" width="16" height="16" viewBox="0 0 16 16">
 <defs>
  <style id="current-color-scheme" type="text/css">
   .ColorScheme-Text { color:#565656; } .ColorScheme-Highlight { color:#5294e2; }
  </style>
 </defs>
 <path style="fill:currentColor" class="ColorScheme-Text" d="M 3 1.0039062 C 3 1.0039062 2 1.0039062 2 2.0039062 L 2 4.7539062 L 4 5.9101562 L 4 3.0039062 L 12 3.0039062 L 12 11.980469 L 0 4.9921875 L 0 11.992188 L 12 11.992188 L 12 13.003906 L 2 13.003906 L 2 14.003906 C 2 15.003906 3 15.003906 3 15.003906 L 13 15.003906 C 13 15.003906 14 15.003906 14 14.003906 L 14 2.0039062 C 14 1.0039062 13 1.0039062 13 1.0039062 L 3 1.0039062 z M 2 8.046875 L 5.1152344 10.023438 L 2 10.023438 L 2 8.046875 z"/>
</svg>

<svg xmlns="http://www.w3.org/2000/svg" width="16" height="16"><defs><style id="current-color-scheme" type="text/css"></style></defs><path d="M3 1.004s-1 0-1 1v2.75L4 5.91V3.004h8v8.976L0 4.992v7h12v1.012H2v1c0 1 1 1 1 1h10s1 0 1-1v-12c0-1-1-1-1-1H3zM2 8.047l3.115 1.976H2V8.047z" fill="currentColor" color="#565656"/></svg>
